!!!COM: Bach, Johann Sebastian
!!!CDT: 1685/3//-1750/7/28/
!!!OTL@@DE: Von Gott will ich nicht lassen
!!!AGN: 4-Part Chorale
!!!SCT: BH 191
!!!SCT: BWV 73
**harm	**root	**kern	**kern	**kern	**kern
!	!	!bass	!tenor	!alto	!soprno
*	*Iorgan	*Iorgan	*Iorgan	*Iorgan	*Iorgan
*	*	*clefF4	*clefF4	*clefG2	*clefG2
*k[b-]	*k[b-]	*k[b-]	*k[b-]	*k[b-]	*k[b-]
*d:	*d:	*d:	*d:	*d:	*d:
*M4/4	*M4/4	*M4/4	*M4/4	*M4/4	*M4/4
*met(c)	*met(c)	*met(c)	*met(c)	*met(c)	*met(c)
*MM60	*MM60	*MM60	*MM60	*MM60	*MM60
*>[A,A,B]	*>[A,A,B]	*>[A,A,B]	*>[A,A,B]	*>[A,A,B]	*>[A,A,B]
*>A	*>A	*>A	*>A	*>A	*>A
i	4AA	4D	4d	4f	4a
=1	=1	=1	=1	=1	=1
i	4AA	4d	4f	4a	4dd
Vb	4EE	4c#	4e	4a	4ee
i	4AA	4d	4d	4a	4ff
Vb/-VII	4DD	4B	4d	4g	4gg
=2	=2	=2	=2	=2	=2
-VII	4GG	4c	4c	8g	2ee
.	.	.	.	8a	.
Vb/V	4BB	4G#	4B	4b	.
v;	4EE;	4A;	4e;	4a;	4cc;
III	4CC	4F	4f	4a	4cc
=3	=3	=3	=3	=3	=3
VI	4FF	4B-	4d	4f	4dd
iv	4DD	4G	4B-	4g	4dd
V7b	2EE	4C#	4A	8g	4ee
.	.	.	.	8b-	.
.	.	4C#	4A	8a	4ee
.	.	.	.	8g	.
=4	=4	=4	=4	=4	=4
i;	2.AA;	2.D;	2.d;	2.f;	2.a;
=:|!	=:|!	=:|!	=:|!	=:|!	=:|!
*>B	*>B	*>B	*>B	*>B	*>B
i	4AA	4d	4f	4dd	4aa
=5	=5	=5	=5	=5	=5
iv	4DD	4B-	4g	4dd	4gg
iv7	4DD	4G	4b-	4dd	4ff
IIIc	4CC	4c	4a	4cc	4ff
-VII	4GG	4C	4g	4cc	4ee
=6	=6	=6	=6	=6	=6
III;	2.CC;	2.F;	2.a;	2.cc;	2.ff;
-VII	4GG	4c	4g	4cc	4ee
!!linebreak: 2
=7	=7	=7	=7	=7	=7
IIIb	4CC	4A	4.f	4cc	4ff
iiob	4BB	4G	.	4b-	4gg
.	.	.	[8e	.	.
III	4CC	4F	8e]	4cc	4aa
.	.	.	8c	.	.
i	4AA	4D	4f	8dd	4aa
.	.	.	.	8cc	.
=8	=8	=8	=8	=8	=8
V7/-VII	2DD	2G	4f	8b	2gg
.	.	.	.	8a	.
.	.	.	8e	4b	.
.	.	.	8d	.	.
-VII;	4GG;	4C;	4c;	4g;	4ee;
-VII	4GG	4c	4g	4cc	4ee
=9	=9	=9	=9	=9	=9
IIIb	4CC	4A	4f	4cc	4ff
III7	4CC	4F	4c	4a	4ee
VI	4FF	4B-	8d	4f	4dd
.	.	.	8e	.	.
VI7	4FF	4A	4f	[4b-	4dd
=10	=10	=10	=10	=10	=10
iiob	4BB	4G	4g	8b-]	4ee
.	.	.	.	8a	.
vii7/V	4DD#	4G#	4f	4b	4dd
v;	4EE;	4A;	4e;	4a;	4cc;
V7/III	4GG	4E	4c	4g	4b-
=11	=11	=11	=11	=11	=11
III	4CC	4F	4c	4f	4a
ivb	4DD	4B-	8d	4g	4dd
.	.	.	8e	.	.
ic	4AA	4A	8f	4a	4dd
.	.	.	16e	.	.
.	.	.	16d	.	.
V	4EE	4AA	4e	4a	4cc#
=12	=12	=12	=12	=12	=12
I;	2.AA;	2.D;	2.f#;	2.a;	2.dd;
==	==	==	==	==	==
*-	*-	*-	*-	*-	*-
!!chor2scor: -l 2 -s 0.6 -o %b.pmx
!!!YEC: Copyright 2001 by Craig Stuart Sapp
!!!license: GNU General Public License (http://www.gnu.org/copyleft/gpl.html)
!!!SMA: 371 Bach Chorales, edited by Ludwig Erk, C.F. Peters
!!!PDT: 1850, 1865
!!!ONB: Harmony and Root analysis done manually by Craig Sapp
